src/pos-icons/cash-register.svg

<?xml version="1.0" encoding="UTF-8"?><!DOCTYPE svg PUBLIC "-//W3C//DTD SVG 1.1//EN" "http://www.w3.org/Graphics/SVG/1.1/DTD/svg11.dtd"><svg xmlns="http://www.w3.org/2000/svg" xmlns:xlink="http://www.w3.org/1999/xlink" version="1.1" id="mdi-cash-register" width="24" height="24" viewBox="0 0 24 24"><path d="M2,17H22V21H2V17M6.25,7H9V6H6V3H14V6H11V7H17.8C18.8,7 19.8,8 20,9L20.5,16H3.5L4.05,9C4.05,8 5.05,7 6.25,7M13,9V11H18V9H13M6,9V10H8V9H6M9,9V10H11V9H9M6,11V12H8V11H6M9,11V12H11V11H9M6,13V14H8V13H6M9,13V14H11V13H9M7,4V5H13V4H7Z" /></svg>

<svg height="24" viewBox="0 0 24 24" width="24" xmlns="http://www.w3.org/2000/svg"><path d="m2 17h20v4h-20zm4.25-10h2.75v-1h-3v-3h8v3h-3v1h6.8c1 0 2 1 2.2 2l.5 7h-17l.55-7c0-1 1-2 2.2-2m6.75 2v2h5v-2zm-7 0v1h2v-1zm3 0v1h2v-1zm-3 2v1h2v-1zm3 0v1h2v-1zm-3 2v1h2v-1zm3 0v1h2v-1zm-2-9v1h6v-1z"/></svg>
